Newaita-dark/apps/22/cheese.svg

<?xml version="1.0" encoding="UTF-8"?>
<svg xmlns="http://www.w3.org/2000/svg" xmlns:xlink="http://www.w3.org/1999/xlink" width="22pt" height="22pt" viewBox="0 0 22 22" version="1.1">
<defs>
<radialGradient id="radial0" gradientUnits="userSpaceOnUse" cx="450.908936" cy="189.579361" fx="450.908936" fy="189.579361" r="21.166656" gradientTransform="matrix(0.000000119742,-0.0537161,-0.0966889,-0.0000000698078,33.565842,43.721791)">
<stop offset="0" style="stop-color:rgb(0%,0%,0%);stop-opacity:0.313725;"/>
<stop offset="0.222222" style="stop-color:rgb(0%,0%,0%);stop-opacity:0.27451;"/>
<stop offset="1" style="stop-color:rgb(0%,0%,0%);stop-opacity:0;"/>
</radialGradient>
<radialGradient id="radial1" gradientUnits="userSpaceOnUse" cx="450.908936" cy="189.579361" fx="450.908936" fy="189.579361" r="21.166656" gradientTransform="matrix(-0.000000119742,0.0537161,0.0966889,0.0000000698078,-11.735632,-5.175142)">
<stop offset="0" style="stop-color:rgb(0%,0%,0%);stop-opacity:0.313725;"/>
<stop offset="0.222222" style="stop-color:rgb(0%,0%,0%);stop-opacity:0.27451;"/>
<stop offset="1" style="stop-color:rgb(0%,0%,0%);stop-opacity:0;"/>
</radialGradient>
<radialGradient id="radial2" gradientUnits="userSpaceOnUse" cx="450.908936" cy="189.579361" fx="450.908936" fy="189.579361" r="21.166656" gradientTransform="matrix(-0.000000119742,-0.0537161,0.0966889,-0.0000000698078,-11.735632,43.721791)">
<stop offset="0" style="stop-color:rgb(0%,0%,0%);stop-opacity:0.313725;"/>
<stop offset="0.222222" style="stop-color:rgb(0%,0%,0%);stop-opacity:0.27451;"/>
<stop offset="1" style="stop-color:rgb(0%,0%,0%);stop-opacity:0;"/>
</radialGradient>
<radialGradient id="radial3" gradientUnits="userSpaceOnUse" cx="450.908936" cy="189.579361" fx="450.908936" fy="189.579361" r="21.166656" gradientTransform="matrix(0.000000119742,0.0537161,-0.0966889,0.0000000698078,33.565841,-5.175143)">
<stop offset="0" style="stop-color:rgb(0%,0%,0%);stop-opacity:0.313725;"/>
<stop offset="0.222222" style="stop-color:rgb(0%,0%,0%);stop-opacity:0.27451;"/>
<stop offset="1" style="stop-color:rgb(0%,0%,0%);stop-opacity:0;"/>
</radialGradient>
<linearGradient id="linear0" gradientUnits="userSpaceOnUse" x1="255.323059" y1="233.5" x2="255.323044" y2="254.666656" gradientTransform="matrix(0.00918504,0,0,0.0429729,8.342555,9.239165)">
<stop offset="0" style="stop-color:rgb(0%,0%,0%);stop-opacity:0.27451;"/>
<stop offset="1" style="stop-color:rgb(0%,0%,0%);stop-opacity:0;"/>
</linearGradient>
<linearGradient id="linear1" gradientUnits="userSpaceOnUse" x1="254" y1="212.333328" x2="254" y2="106.5" >
<stop offset="0" style="stop-color:rgb(74.117647%,74.117647%,74.117647%);stop-opacity:1;"/>
<stop offset="1" style="stop-color:rgb(87.843137%,87.843137%,87.843137%);stop-opacity:1;"/>
</linearGradient>
<linearGradient id="linear2" gradientUnits="userSpaceOnUse" x1="275.166016" y1="233.499924" x2="275.166016" y2="-62.833405" gradientTransform="matrix(0.0429729,0,0,0.0429729,-2.273953,4.691206)">
<stop offset="0" style="stop-color:rgb(74.117647%,74.117647%,74.117647%);stop-opacity:1;"/>
<stop offset="1" style="stop-color:rgb(87.843137%,87.843137%,87.843137%);stop-opacity:1;"/>
</linearGradient>
<linearGradient id="linear3" gradientUnits="userSpaceOnUse" x1="254" y1="85.333336" x2="254" y2="-126.333344" gradientTransform="matrix(3.779528,0,0,3.779528,0,812.59845)">
<stop offset="0" style="stop-color:rgb(14.901961%,77.647059%,85.490196%);stop-opacity:1;"/>
<stop offset="1" style="stop-color:rgb(30.196078%,81.568627%,88.235294%);stop-opacity:1;"/>
</linearGradient>
<linearGradient id="linear4" gradientUnits="userSpaceOnUse" x1="264.583344" y1="-84" x2="264.583344" y2="43" >
<stop offset="0" style="stop-color:rgb(74.117647%,74.117647%,74.117647%);stop-opacity:1;"/>
<stop offset="1" style="stop-color:rgb(87.843137%,87.843137%,87.843137%);stop-opacity:1;"/>
</linearGradient>
<linearGradient id="linear5" gradientUnits="userSpaceOnUse" x1="254" y1="233.5" x2="254" y2="191.166672" gradientTransform="matrix(0.0429729,0,0,0.0429729,0,9.239163)">
<stop offset="0" style="stop-color:rgb(74.117647%,74.117647%,74.117647%);stop-opacity:1;"/>
<stop offset="1" style="stop-color:rgb(87.843137%,87.843137%,87.843137%);stop-opacity:1;"/>
</linearGradient>
<linearGradient id="linear6" gradientUnits="userSpaceOnUse" x1="243.416672" y1="11.25" x2="243.416672" y2="-52.25" >
<stop offset="0" style="stop-color:rgb(25.882353%,25.882353%,25.882353%);stop-opacity:1;"/>
<stop offset="1" style="stop-color:rgb(38.039216%,38.039216%,38.039216%);stop-opacity:1;"/>
</linearGradient>
</defs>
<g id="surface1">
<path style=" stroke:none;fill-rule:nonzero;fill:url(#radial0);" d="M 15.464844 19.273438 L 17.28125 19.273438 L 17.28125 18.363281 L 15.464844 18.363281 Z M 15.464844 19.273438 "/>
<path style=" stroke:none;fill-rule:nonzero;fill:url(#radial1);" d="M 6.367188 19.273438 L 4.546875 19.273438 L 4.546875 20.183594 L 6.367188 20.183594 Z M 6.367188 19.273438 "/>
<path style=" stroke:none;fill-rule:nonzero;fill:url(#radial2);" d="M 6.367188 19.273438 L 4.546875 19.273438 L 4.546875 18.363281 L 6.367188 18.363281 Z M 6.367188 19.273438 "/>
<path style=" stroke:none;fill-rule:nonzero;fill:url(#radial3);" d="M 15.464844 19.273438 L 17.28125 19.273438 L 17.28125 20.183594 L 15.464844 20.183594 Z M 15.464844 19.273438 "/>
<path style=" stroke:none;fill-rule:nonzero;fill:url(#linear0);" d="M 6.367188 18.820312 L 15.464844 18.820312 L 15.464844 20.183594 L 6.367188 20.183594 Z M 6.367188 18.820312 "/>
<path style="fill-rule:nonzero;fill:url(#linear1);stroke-width:3;stroke-linecap:square;stroke-linejoin:bevel;stroke:rgb(20%,20%,20%);stroke-opacity:1;stroke-miterlimit:4;" d="M 232.795951 85.334956 L 275.155542 85.334956 C 286.881695 85.334956 292.153919 95.515802 296.335338 106.514751 L 328.786784 191.143033 C 333.059104 202.141983 286.881695 212.322829 275.155542 212.322829 L 232.795951 212.322829 C 221.069798 212.322829 176.074095 202.141983 180.164613 191.143033 L 211.707056 106.514751 C 215.797574 95.515802 221.069798 85.334956 232.795951 85.334956 Z M 232.795951 85.334956 " transform="matrix(0.0429729,0,0,0.0429729,0,9.239163)"/>
<path style=" stroke:none;fill-rule:nonzero;fill:url(#linear2);" d="M 10.914062 1.992188 C 14.429688 1.992188 17.28125 4.839844 17.28125 8.359375 C 17.28125 11.875 14.429688 14.726562 10.914062 14.726562 C 7.398438 14.726562 4.546875 11.875 4.546875 8.359375 C 4.546875 4.839844 7.398438 1.992188 10.914062 1.992188 Z M 10.914062 1.992188 "/>
<path style=" stroke:none;fill-rule:nonzero;fill:rgb(100%,100%,100%);fill-opacity:0.392157;" d="M 10.914062 1.992188 C 7.386719 1.992188 4.546875 4.832031 4.546875 8.359375 C 4.546875 8.378906 4.546875 8.394531 4.546875 8.414062 C 4.578125 4.914062 7.40625 2.105469 10.914062 2.105469 C 14.421875 2.105469 17.25 4.914062 17.28125 8.414062 C 17.28125 8.394531 17.28125 8.378906 17.28125 8.359375 C 17.28125 4.832031 14.441406 1.992188 10.914062 1.992188 Z M 10.914062 1.992188 "/>
<path style=" stroke:none;fill-rule:nonzero;fill:rgb(0%,0%,0%);fill-opacity:0.235294;" d="M 10.914062 14.726562 C 7.386719 14.726562 4.546875 11.886719 4.546875 8.359375 C 4.546875 8.339844 4.546875 8.320312 4.546875 8.300781 C 4.578125 11.800781 7.40625 14.613281 10.914062 14.613281 C 14.421875 14.613281 17.25 11.800781 17.28125 8.300781 C 17.28125 8.320312 17.28125 8.339844 17.28125 8.359375 C 17.28125 11.886719 14.441406 14.726562 10.914062 14.726562 Z M 10.914062 14.726562 "/>
<path style=" stroke:none;fill-rule:nonzero;fill:rgb(12.941177%,12.941177%,12.941177%);fill-opacity:1;" d="M 10.914062 1.925781 C 7.351562 1.925781 4.484375 4.796875 4.484375 8.359375 C 4.484375 11.921875 7.351562 14.789062 10.914062 14.789062 C 14.476562 14.789062 17.347656 11.921875 17.347656 8.359375 C 17.347656 4.796875 14.476562 1.925781 10.914062 1.925781 Z M 10.914062 2.054688 C 14.40625 2.054688 17.21875 4.867188 17.21875 8.359375 C 17.21875 11.851562 14.40625 14.660156 10.914062 14.660156 C 7.421875 14.660156 4.613281 11.851562 4.613281 8.359375 C 4.613281 4.867188 7.421875 2.054688 10.914062 2.054688 Z M 10.914062 2.054688 "/>
<path style="fill-rule:nonzero;fill:url(#linear3);stroke-width:11.338583;stroke-linecap:square;stroke-linejoin:bevel;stroke:rgb(20%,20%,20%);stroke-opacity:1;stroke-miterlimit:4;" d="M 959.908384 334.971609 C 773.011404 334.971609 616.69132 462.089039 572.372 635.243594 L 399.904566 635.243594 C 377.916687 635.243594 360.051534 653.108746 360.051534 675.096626 L 360.051534 794.999284 C 360.051534 817.330725 377.916687 835.195877 399.904566 835.195877 L 572.372 835.195877 C 616.69132 1008.006871 773.011404 1135.124302 959.908384 1135.124302 C 1147.148924 1135.124302 1303.469008 1008.006871 1347.444768 835.195877 L 1519.912201 835.195877 C 1542.243642 835.195877 1560.108794 817.330725 1560.108794 794.999284 L 1560.108794 675.096626 C 1560.108794 653.108746 1542.243642 635.243594 1519.912201 635.243594 L 1347.444768 635.243594 C 1303.469008 462.089039 1147.148924 334.971609 959.908384 334.971609 Z M 959.908384 334.971609 " transform="matrix(0.0113699,0,0,0.0113699,0,0)"/>
<path style="fill-rule:nonzero;fill:url(#linear4);stroke-width:3;stroke-linecap:square;stroke-linejoin:bevel;stroke:rgb(20%,20%,20%);stroke-opacity:1;stroke-miterlimit:4;" d="M 253.975747 -84.012509 C 289.063305 -84.012509 317.515133 -55.56068 317.515133 -20.473122 C 317.515133 14.614437 289.063305 42.975365 253.975747 42.975365 C 218.888188 42.975365 190.52726 14.614437 190.52726 -20.473122 C 190.52726 -55.56068 218.888188 -84.012509 253.975747 -84.012509 Z M 253.975747 -84.012509 " transform="matrix(0.0429729,0,0,0.0429729,0,9.239163)"/>
<path style=" stroke:none;fill-rule:nonzero;fill:url(#linear5);" d="M 5.457031 17.453125 L 16.371094 17.453125 C 16.875 17.453125 17.28125 17.863281 17.28125 18.363281 C 17.28125 18.867188 16.875 19.273438 16.371094 19.273438 L 5.457031 19.273438 C 4.957031 19.273438 4.546875 18.867188 4.546875 18.363281 C 4.546875 17.863281 4.957031 17.453125 5.457031 17.453125 Z M 5.457031 17.453125 "/>
<path style="fill-rule:nonzero;fill:url(#linear6);stroke-width:3;stroke-linecap:square;stroke-linejoin:bevel;stroke:rgb(20%,20%,20%);stroke-opacity:1;stroke-miterlimit:4;" d="M 253.975747 -52.288265 C 271.519526 -52.288265 285.79089 -38.016901 285.79089 -20.473122 C 285.79089 -2.929343 271.519526 11.251121 253.975747 11.251121 C 236.431967 11.251121 222.251503 -2.929343 222.251503 -20.473122 C 222.251503 -38.016901 236.431967 -52.288265 253.975747 -52.288265 Z M 253.975747 -52.288265 " transform="matrix(0.0429729,0,0,0.0429729,0,9.239163)"/>
<path style=" stroke:none;fill-rule:nonzero;fill:rgb(96.470588%,96.470588%,96.470588%);fill-opacity:0.392157;" d="M 5.457031 17.453125 C 4.953125 17.453125 4.546875 17.859375 4.546875 18.363281 C 4.546875 18.402344 4.550781 18.441406 4.554688 18.476562 C 4.609375 18.027344 4.992188 17.679688 5.457031 17.679688 L 16.371094 17.679688 C 16.839844 17.679688 17.21875 18.027344 17.273438 18.476562 C 17.28125 18.441406 17.28125 18.402344 17.28125 18.363281 C 17.28125 17.859375 16.875 17.453125 16.371094 17.453125 Z M 5.457031 17.453125 "/>
<path style=" stroke:none;fill-rule:nonzero;fill:rgb(0%,0%,0%);fill-opacity:0.235294;" d="M 4.554688 18.25 C 4.550781 18.289062 4.546875 18.324219 4.546875 18.363281 C 4.546875 18.867188 4.953125 19.273438 5.457031 19.273438 L 16.371094 19.273438 C 16.875 19.273438 17.28125 18.867188 17.28125 18.363281 C 17.28125 18.324219 17.28125 18.289062 17.273438 18.25 C 17.21875 18.699219 16.839844 19.046875 16.371094 19.046875 L 5.457031 19.046875 C 4.992188 19.046875 4.609375 18.699219 4.554688 18.25 Z M 4.554688 18.25 "/>
<path style=" stroke:none;fill-rule:nonzero;fill:rgb(20%,20%,20%);fill-opacity:1;" d="M 5.457031 17.390625 C 4.917969 17.390625 4.484375 17.824219 4.484375 18.363281 C 4.484375 18.902344 4.917969 19.335938 5.457031 19.335938 L 16.371094 19.335938 C 16.910156 19.335938 17.347656 18.902344 17.347656 18.363281 C 17.347656 17.824219 16.910156 17.390625 16.371094 17.390625 Z M 5.457031 17.519531 L 16.371094 17.519531 C 16.84375 17.519531 17.21875 17.894531 17.21875 18.363281 C 17.21875 18.832031 16.84375 19.207031 16.371094 19.207031 L 5.457031 19.207031 C 4.988281 19.207031 4.613281 18.832031 4.613281 18.363281 C 4.613281 17.894531 4.988281 17.519531 5.457031 17.519531 Z M 5.457031 17.519531 "/>
</g>
</svg>

<svg xmlns="http://www.w3.org/2000/svg" width="22pt" height="22pt" viewBox="0 0 22 22"><defs><radialGradient id="a" gradientUnits="userSpaceOnUse" cx="450.909" cy="189.579" fx="450.909" fy="189.579" r="21.167" gradientTransform="matrix(0 -.05372 -.09669 0 33.566 43.722)"><stop offset="0" stop-opacity=".314"/><stop offset=".222" stop-opacity=".275"/><stop offset="1" stop-opacity="0"/></radialGradient><radialGradient id="b" gradientUnits="userSpaceOnUse" cx="450.909" cy="189.579" fx="450.909" fy="189.579" r="21.167" gradientTransform="matrix(0 .05372 .09669 0 -11.736 -5.175)"><stop offset="0" stop-opacity=".314"/><stop offset=".222" stop-opacity=".275"/><stop offset="1" stop-opacity="0"/></radialGradient><radialGradient id="c" gradientUnits="userSpaceOnUse" cx="450.909" cy="189.579" fx="450.909" fy="189.579" r="21.167" gradientTransform="matrix(0 -.05372 .09669 0 -11.736 43.722)"><stop offset="0" stop-opacity=".314"/><stop offset=".222" stop-opacity=".275"/><stop offset="1" stop-opacity="0"/></radialGradient><radialGradient id="d" gradientUnits="userSpaceOnUse" cx="450.909" cy="189.579" fx="450.909" fy="189.579" r="21.167" gradientTransform="matrix(0 .05372 -.09669 0 33.566 -5.175)"><stop offset="0" stop-opacity=".314"/><stop offset=".222" stop-opacity=".275"/><stop offset="1" stop-opacity="0"/></radialGradient><linearGradient id="e" gradientUnits="userSpaceOnUse" x1="255.323" y1="233.5" x2="255.323" y2="254.667" gradientTransform="matrix(.00919 0 0 .04297 8.343 9.24)"><stop offset="0" stop-opacity=".275"/><stop offset="1" stop-opacity="0"/></linearGradient><linearGradient id="f" gradientUnits="userSpaceOnUse" x1="254" y1="212.333" x2="254" y2="106.5"><stop offset="0" stop-color="#bdbdbd"/><stop offset="1" stop-color="#e0e0e0"/></linearGradient><linearGradient id="g" gradientUnits="userSpaceOnUse" x1="275.166" y1="233.5" x2="275.166" y2="-62.833" gradientTransform="matrix(.04297 0 0 .04297 -2.274 4.691)"><stop offset="0" stop-color="#bdbdbd"/><stop offset="1" stop-color="#e0e0e0"/></linearGradient><linearGradient id="h" gradientUnits="userSpaceOnUse" x1="254" y1="85.333" x2="254" y2="-126.333" gradientTransform="matrix(3.77953 0 0 3.77953 0 812.598)"><stop offset="0" stop-color="#26c6da"/><stop offset="1" stop-color="#4dd0e1"/></linearGradient><linearGradient id="i" gradientUnits="userSpaceOnUse" x1="264.583" y1="-84" x2="264.583" y2="43"><stop offset="0" stop-color="#bdbdbd"/><stop offset="1" stop-color="#e0e0e0"/></linearGradient><linearGradient id="j" gradientUnits="userSpaceOnUse" x1="254" y1="233.5" x2="254" y2="191.167" gradientTransform="matrix(.04297 0 0 .04297 0 9.24)"><stop offset="0" stop-color="#bdbdbd"/><stop offset="1" stop-color="#e0e0e0"/></linearGradient><linearGradient id="k" gradientUnits="userSpaceOnUse" x1="243.417" y1="11.25" x2="243.417" y2="-52.25"><stop offset="0" stop-color="#424242"/><stop offset="1" stop-color="#616161"/></linearGradient></defs><path d="M15.465 19.273h1.816v-.91h-1.816zm0 0" fill="url(#a)"/><path d="M6.367 19.273h-1.82v.91h1.82zm0 0" fill="url(#b)"/><path d="M6.367 19.273h-1.82v-.91h1.82zm0 0" fill="url(#c)"/><path d="M15.465 19.273h1.816v.91h-1.816zm0 0" fill="url(#d)"/><path d="M6.367 18.82h9.098v1.364H6.367zm0 0" fill="url(#e)"/><path d="M232.796 85.335h42.36c11.726 0 16.998 10.18 21.18 21.18l32.45 84.628c4.273 10.999-41.904 21.18-53.63 21.18h-42.36c-11.726 0-56.722-10.181-52.631-21.18l31.542-84.628c4.09-11 9.363-21.18 21.089-21.18zm0 0" transform="matrix(.04297 0 0 .04297 0 9.24)" fill="url(#f)" stroke-width="3" stroke-linecap="square" stroke-linejoin="bevel" stroke="#333"/><path d="M10.914 1.992a6.368 6.368 0 1 1-.002 12.732 6.368 6.368 0 0 1 .002-12.732zm0 0" fill="url(#g)"/><path d="M10.914 1.992A6.353 6.353 0 0 0 4.547 8.36v.055a6.353 6.353 0 0 1 6.367-6.309 6.353 6.353 0 0 1 6.367 6.31v-.056a6.353 6.353 0 0 0-6.367-6.367zm0 0" fill="#fff" fill-opacity=".392"/><path d="M10.914 14.727a6.353 6.353 0 0 1-6.367-6.368v-.058a6.357 6.357 0 0 0 6.367 6.312 6.357 6.357 0 0 0 6.367-6.312v.058a6.353 6.353 0 0 1-6.367 6.368zm0 0" fill-opacity=".235"/><path d="M10.914 1.926a6.418 6.418 0 0 0-6.43 6.433 6.415 6.415 0 0 0 6.43 6.43 6.418 6.418 0 0 0 6.434-6.43 6.422 6.422 0 0 0-6.434-6.433zm0 .129a6.292 6.292 0 0 1 6.305 6.304c0 3.493-2.813 6.301-6.305 6.301a6.285 6.285 0 0 1-6.3-6.3 6.288 6.288 0 0 1 6.3-6.305zm0 0" fill="#212121"/><path d="M959.908 334.972c-186.897 0-343.217 127.117-387.536 300.272H399.905c-21.988 0-39.853 17.865-39.853 39.853v119.902c0 22.332 17.865 40.197 39.853 40.197h172.467c44.32 172.81 200.64 299.928 387.536 299.928 187.24 0 343.561-127.117 387.537-299.928h172.467c22.332 0 40.197-17.865 40.197-40.197V675.097c0-21.988-17.865-39.853-40.197-39.853h-172.467c-43.976-173.155-200.296-300.272-387.537-300.272zm0 0" transform="rotate(.24) scale(.01137)" fill="url(#h)" stroke-width="11.339" stroke-linecap="square" stroke-linejoin="bevel" stroke="#333"/><path d="M253.976-84.013c35.087 0 63.54 28.452 63.54 63.54 0 35.087-28.453 63.448-63.54 63.448-35.088 0-63.449-28.36-63.449-63.448s28.361-63.54 63.449-63.54zm0 0" transform="matrix(.04297 0 0 .04297 0 9.24)" fill="url(#i)" stroke-width="3" stroke-linecap="square" stroke-linejoin="bevel" stroke="#333"/><path d="M5.457 17.453h10.914a.911.911 0 0 1 0 1.82H5.457a.911.911 0 0 1 0-1.82zm0 0" fill="url(#j)"/><path d="M253.976-52.288c17.544 0 31.815 14.271 31.815 31.815S271.52 11.25 253.976 11.25s-31.724-14.18-31.724-31.724 14.18-31.815 31.724-31.815zm0 0" transform="matrix(.04297 0 0 .04297 0 9.24)" fill="url(#k)" stroke-width="3" stroke-linecap="square" stroke-linejoin="bevel" stroke="#333"/><path d="M5.457 17.453a.909.909 0 0 0-.902 1.024.908.908 0 0 1 .902-.797h10.914c.469 0 .848.347.902.797.008-.036.008-.075.008-.114a.909.909 0 0 0-.91-.91zm0 0" fill="#f6f6f6" fill-opacity=".392"/><path d="M4.555 18.25c-.004.04-.008.074-.008.113 0 .504.406.91.91.91h10.914c.504 0 .91-.406.91-.91 0-.039 0-.074-.008-.113a.905.905 0 0 1-.902.797H5.457a.908.908 0 0 1-.902-.797zm0 0" fill-opacity=".235"/><path d="M5.457 17.39a.97.97 0 0 0-.973.973c0 .54.434.973.973.973h10.914a.974.974 0 1 0 0-1.945zm0 .13h10.914c.473 0 .848.375.848.843a.841.841 0 0 1-.848.844H5.457a.84.84 0 0 1-.844-.844.84.84 0 0 1 .844-.843zm0 0" fill="#333"/></svg>
